X: 10
T:Bobbing Joe, Badby
M:6/8
L:1/8
A:Badby
P:A(AB)4A
K:Am
P:A
|:Bc|A2e e2d|efe dcB|A2B c2d|e2c A:|
P:B
|:Bc|BdB G3 |BdB GAB|A2B c2d|e2c A:|
